wp-content/themes/target/img/phone.svg

<svg width="27" height="27" viewBox="0 0 27 27" fill="none" xmlns="http://www.w3.org/2000/svg">
<path d="M15.5274 15.528C12.9154 18.1383 9.88932 20.6364 8.69307 19.4401C6.98202 17.7291 5.92602 16.2375 2.15082 19.2718C-1.62273 22.3045 1.27632 24.3274 2.93457 25.984C4.84857 27.898 11.9832 26.0863 19.0353 19.0359C26.0857 11.9838 27.8925 4.84917 25.9768 2.93517C24.3186 1.27527 22.3056 -1.62213 19.2729 2.15142C16.2385 5.92497 17.7285 6.98097 19.4428 8.69367C20.6341 9.88992 18.1377 12.916 15.5274 15.528Z" fill="#13AB67"/>
</svg>

<svg width="27" height="27" viewBox="0 0 27 27" fill="none" xmlns="http://www.w3.org/2000/svg"><path d="M15.527 15.528c-2.612 2.61-5.638 5.108-6.834 3.912-1.711-1.71-2.767-3.203-6.542-.168-3.774 3.033-.875 5.055.784 6.712 1.914 1.914 9.048.102 16.1-6.948 7.05-7.052 8.857-14.187 6.942-16.1-1.658-1.66-3.671-4.558-6.704-.785-3.035 3.774-1.544 4.83.17 6.543 1.191 1.196-1.305 4.222-3.916 6.834z" fill="#13AB67"/></svg>
